www/assets/icons/bakery_dining.svg

<svg width="24" height="24" viewBox="0 0 24 24" xmlns="http://www.w3.org/2000/svg" fill='currentColor'><path fill-rule="evenodd" clip-rule="evenodd" d="M19.285 16.5869C18.075 15.6969 17.465 15.2469 17.465 15.2469C17.465 15.2469 17.785 14.6569 18.425 13.4669C18.805 12.8769 19.645 12.8769 20.025 13.4669L20.835 14.7269C21.025 15.0269 21.045 15.4069 20.895 15.7269L20.675 16.1969C20.425 16.7369 19.765 16.9169 19.285 16.5869ZM4.725 16.5869C4.245 16.9169 3.595 16.7369 3.335 16.2069L3.105 15.7369C2.955 15.4169 2.975 15.0369 3.165 14.7369L3.975 13.4769C4.355 12.8869 5.195 12.8869 5.575 13.4769C6.225 14.6569 6.545 15.2469 6.545 15.2469C6.545 15.2469 5.935 15.6969 4.725 16.5869ZM15.365 9.61695C15.455 8.93695 16.095 8.55695 16.635 8.86695L18.225 9.76695C18.685 10.0269 18.855 10.6769 18.585 11.1769L16.505 15.2469H14.705L15.365 9.61695ZM8.635 9.61695L9.305 15.2469H7.505L5.415 11.1669C5.145 10.6669 5.315 10.0169 5.775 9.75695L7.365 8.85695C7.895 8.55695 8.545 8.93695 8.635 9.61695ZM13.805 15.2469H10.205L9.465 8.36695C9.395 7.77695 9.815 7.24695 10.345 7.24695H13.645C14.175 7.24695 14.585 7.77695 14.525 8.36695L13.805 15.2469Z"/></svg>

<svg xmlns="http://www.w3.org/2000/svg" width="24" height="24" viewBox="0 0 24 24" fill='currentColor'><path fill-rule="evenodd" d="m19.285 16.587-1.82-1.34s.32-.59.96-1.78a.944.944 0 0 1 1.6 0l.81 1.26c.19.3.21.68.06 1l-.22.47a.94.94 0 0 1-1.39.39m-14.56 0a.946.946 0 0 1-1.39-.38l-.23-.47c-.15-.32-.13-.7.06-1l.81-1.26a.944.944 0 0 1 1.6 0c.65 1.18.97 1.77.97 1.77zm10.64-6.97c.09-.68.73-1.06 1.27-.75l1.59.9c.46.26.63.91.36 1.41l-2.08 4.07h-1.8zm-6.73 0 .67 5.63h-1.8l-2.09-4.08c-.27-.5-.1-1.15.36-1.41l1.59-.9c.53-.3 1.18.08 1.27.76m5.17 5.63h-3.6l-.74-6.88c-.07-.59.35-1.12.88-1.12h3.3c.53 0 .94.53.88 1.12z" clip-rule="evenodd"/></svg>
